report_00007_2020-12-11T15:55:29.892Z/first-contentful-paint/comparison/line/12_vs_13.svg

<svg width="640" height="500" xmlns="http://www.w3.org/2000/svg" xmlns:xlink="http://www.w3.org/1999/xlink"><path fill="#fff" d="M0 0h640v500H0z"/><defs><path id="d" stroke-width=".222" stroke="currentColor" d="M-1-1h2v2h-2z"/><path id="b" stroke-width=".222" stroke="currentColor" d="M0-1.33l-1.33 2h2.66z"/><path id="f" stroke-width=".222" stroke="currentColor" d="M0 1.33L1.265.411.782-1.067l-1.564-.009-.483 1.487z"/><use xlink:href="#b" id="c" stroke="currentColor" transform="rotate(180)"/><use xlink:href="#d" id="e" stroke="currentColor" transform="rotate(45)"/><circle id="a" stroke-width=".222" stroke="currentColor" cx="0" cy="0" r="1"/></defs><g fill="none" color="#000" stroke="currentColor"><path stroke="#000" d="M62.2 356.3h9m543.8 0h-9"/><text transform="translate(53.9 360.2)" stroke="none" fill="#000" font-family="Arial" font-size="12" text-anchor="end"><tspan>1520</tspan></text></g><g fill="none" color="#000" stroke="currentColor"><path stroke="#000" d="M62.2 312.5h9m543.8 0h-9"/><text transform="translate(53.9 316.4)" stroke="none" fill="#000" font-family="Arial" font-size="12" text-anchor="end"><tspan>1540</tspan></text></g><g fill="none" color="#000" stroke="currentColor"><path stroke="#000" d="M62.2 268.7h9m543.8 0h-9"/><text transform="translate(53.9 272.6)" stroke="none" fill="#000" font-family="Arial" font-size="12" text-anchor="end"><tspan>1560</tspan></text></g><g fill="none" color="#000" stroke="currentColor"><path stroke="#000" d="M62.2 224.8h9m543.8 0h-9"/><text transform="translate(53.9 228.7)" stroke="none" fill="#000" font-family="Arial" font-size="12" text-anchor="end"><tspan>1580</tspan></text></g><g fill="none" color="#000" stroke="currentColor"><path stroke="#000" d="M62.2 181h9m543.8 0h-9"/><text transform="translate(53.9 184.9)" stroke="none" fill="#000" font-family="Arial" font-size="12" text-anchor="end"><tspan>1600</tspan></text></g><g fill="none" color="#000" stroke="currentColor"><path stroke="#000" d="M62.2 137.2h9m543.8 0h-9"/><text transform="translate(53.9 141.1)" stroke="none" fill="#000" font-family="Arial" font-size="12" text-anchor="end"><tspan>1620</tspan></text></g><g fill="none" color="#000" stroke="currentColor"><path stroke="#000" d="M62.2 93.4h9m543.8 0h-9"/><text transform="translate(53.9 97.3)" stroke="none" fill="#000" font-family="Arial" font-size="12" text-anchor="end"><tspan>1640</tspan></text></g><g fill="none" color="#000" stroke="currentColor"><path stroke="#000" d="M62.2 49.6h9m543.8 0h-9"/><text transform="translate(53.9 53.5)" stroke="none" fill="#000" font-family="Arial" font-size="12" text-anchor="end"><tspan>1660</tspan></text></g><g fill="none" color="#000" stroke="currentColor"><path stroke="#000" d="M62.2 392v-9m0-364.9v9"/><text transform="translate(62.2 413.9)" stroke="none" fill="#000" font-family="Arial" font-size="12" text-anchor="middle"><tspan>0</tspan></text></g><g fill="none" color="#000" stroke="currentColor"><path stroke="#000" d="M118 392v-9m0-364.9v9"/><text transform="translate(118 413.9)" stroke="none" fill="#000" font-family="Arial" font-size="12" text-anchor="middle"><tspan>10</tspan></text></g><g fill="none" color="#000" stroke="currentColor"><path stroke="#000" d="M173.9 392v-9m0-364.9v9"/><text transform="translate(173.9 413.9)" stroke="none" fill="#000" font-family="Arial" font-size="12" text-anchor="middle"><tspan>20</tspan></text></g><g fill="none" color="#000" stroke="currentColor"><path stroke="#000" d="M229.7 392v-9m0-364.9v9"/><text transform="translate(229.7 413.9)" stroke="none" fill="#000" font-family="Arial" font-size="12" text-anchor="middle"><tspan>30</tspan></text></g><g fill="none" color="#000" stroke="currentColor"><path stroke="#000" d="M285.6 392v-9m0-364.9v9"/><text transform="translate(285.6 413.9)" stroke="none" fill="#000" font-family="Arial" font-size="12" text-anchor="middle"><tspan>40</tspan></text></g><g fill="none" color="#000" stroke="currentColor"><path stroke="#000" d="M341.4 392v-9m0-364.9v9"/><text transform="translate(341.4 413.9)" stroke="none" fill="#000" font-family="Arial" font-size="12" text-anchor="middle"><tspan>50</tspan></text></g><g fill="none" color="#000" stroke="currentColor"><path stroke="#000" d="M397.2 392v-9m0-364.9v9"/><text transform="translate(397.2 413.9)" stroke="none" fill="#000" font-family="Arial" font-size="12" text-anchor="middle"><tspan>60</tspan></text></g><g fill="none" color="#000" stroke="currentColor"><path stroke="#000" d="M453.1 392v-9m0-364.9v9"/><text transform="translate(453.1 413.9)" stroke="none" fill="#000" font-family="Arial" font-size="12" text-anchor="middle"><tspan>70</tspan></text></g><g fill="none" color="#000" stroke="currentColor"><path stroke="#000" d="M508.9 392v-9m0-364.9v9"/><text transform="translate(508.9 413.9)" stroke="none" fill="#000" font-family="Arial" font-size="12" text-anchor="middle"><tspan>80</tspan></text></g><g fill="none" color="#000" stroke="currentColor"><path stroke="#000" d="M564.7 392v-9m0-364.9v9"/><text transform="translate(564.7 413.9)" stroke="none" fill="#000" font-family="Arial" font-size="12" text-anchor="middle"><tspan>90</tspan></text></g><path stroke="#000" d="M62.2 18.1V392H615V18.1H62.2z" fill="none" color="#000"/><text transform="translate(533.3 431.9)" stroke="none" fill="#000" font-family="Arial" font-size="12" text-anchor="end" color="#000"><tspan>pages+cached+noexternal+nofonts+nosvg+noimg+nocss</tspan></text><path stroke="#9400D3" d="M541.6 428h42.2M62.2 42.9l5.6-2.6 5.6 2.6 5.6-8.2 5.5 1.1 5.6 7.8 5.6-4.7 5.6-1.6 5.6 3 5.6-1.3 5.5 2.7 5.6 2.5 5.6-14.8 5.6 10.8 5.6-.8 5.6 3.3 5.5-2 5.6-15.4 5.6 15.8 5.6-4.2 5.6 9.4 5.6-4.8 5.5-5.9 5.6 9.2 5.6 1.3 5.6-7.6 5.6-.7 5.6-1.4 5.5 5.9 5.6-1.3 5.6 3.6 5.6-2 5.6-9.4 5.6 7.8 5.6-5.5 5.5 3.4 5.6 2.3 5.6-5.3 5.6 6.2 5.6-5 5.6 4.6 5.5-.8 5.6 5.8 5.6-5.9 5.6-1.2 5.6-.3 5.6 1.3 5.5-.2 5.6 6.3 5.6-8.7 5.6 3.6 5.6-.6 5.6.4 5.5 1.1 5.6-6.4 5.6 11.5 5.6-4 5.6-.5 5.6-1.5 5.5-2.4 5.6-4.5 5.6 9 5.6 1.6L414 44l5.6-5.4 5.5 4.1 5.6-7.6 5.6 9.8 5.6-6.2 5.6 4.1 5.6 1 5.6-9.8 5.5 7.9 5.6 3 5.6-17.2 5.6 9.8 5.6 6.6 5.6-2.1 5.5 1.2 5.6-9.2 5.6 7.8 5.6-4 5.6 3 5.6 1.1 5.5-4.4 5.6-.8 5.6 6 5.6-1.3 5.6-4.5 5.6 3.1 5.5 1.2 5.6-3 5.6 3.8 5.6 3.8 5.6-4.5 5.6 2.7 5.5-4.2 5.6-2.4 5.6 7.5 5.6-6.2" fill="none" color="#000"/><text transform="translate(533.3 449.9)" stroke="none" fill="#000" font-family="Arial" font-size="12" text-anchor="end" color="#000"><tspan>pages+cached+noexternal+nofonts+nosvg+noimg+nocss+nojs</tspan></text><path stroke="#009E73" d="M541.6 446h42.2M62.2 379.1l5.6 3.7 5.6-1.8 5.6 3.5 5.5-5.1 5.6 3.4 5.6-2.8 5.6 3.8 5.6-4.6 5.6.5 5.5-.1 5.6-2.4 5.6 7.1 5.6-4.2 5.6 1.3 5.6-1.2 5.5-.1 5.6-1.1 5.6 2.4 5.6-.9 5.6-1.9 5.6 4.2 5.5-1.9 5.6-.3 5.6-1.6 5.6.8 5.6-1.4 5.6 1.1 5.5 1.2 5.6-1.6 5.6.4 5.6 3.1 5.6-3.6 5.6 1.9 5.6.7 5.5-3.1 5.6 4.1 5.6-2.7 5.6.5 5.6 2.5 5.6.4 5.5-4.5 5.6 3.5 5.6-.7 5.6 3.2 5.6-5.2 5.6-.7 5.5-.3 5.6-1.1 5.6 1.2 5.6 2.5 5.6-.4 5.6-.7 5.5.5 5.6-.4 5.6 1.5 5.6-2.3 5.6-.7 5.6-.2 5.5.4 5.6 2 5.6-1.1 5.6-1.2 5.6 2 5.6 2.1 5.5-.6 5.6-1.7 5.6.4 5.6-1.5 5.6 4.6 5.6-3.4 5.6.3 5.5-.7 5.6.6 5.6-.4 5.6-.8 5.6-.3 5.6.4 5.5 1.6 5.6-2 5.6 2.3 5.6-4.1 5.6 6.7 5.6-6.3 5.5 4.3 5.6-2.2 5.6 1 5.6 1.7 5.6-3.4 5.6 1.1 5.5.2 5.6.1 5.6-1.4 5.6.3 5.6 4.4 5.6-1.1 5.5-2.2 5.6.8 5.6-3.6 5.6 6.7" fill="none" color="#000"/><text transform="translate(533.3 467.9)" stroke="none" fill="#000" font-family="Arial" font-size="12" text-anchor="end" color="#000"><tspan>score p10=2336</tspan></text><path stroke="#56B4E9" d="M541.6 464h42.2" fill="none" color="#000"/><g><text transform="translate(533.3 485.9)" stroke="none" fill="#000" font-family="Arial" font-size="12" text-anchor="end" color="#000"><tspan>score median=4000</tspan></text><path stroke="#E69F00" d="M541.6 482h42.2" fill="none" color="#000"/></g><g fill="none" color="#000" stroke="currentColor"><path stroke="#000" d="M62.2 18.1V392H615V18.1H62.2z"/></g></svg>

<?xml version="1.0" encoding="utf-8"  standalone="no"?>
<svg 
 width="640" height="500"
 viewBox="0 0 640 500"
 xmlns="http://www.w3.org/2000/svg"
 xmlns:xlink="http://www.w3.org/1999/xlink"
>

<title>Gnuplot</title>
<desc>Produced by GNUPLOT 5.4 patchlevel 0 </desc>

<g id="gnuplot_canvas">

<rect x="0" y="0" width="640" height="500" fill="#ffffff"/>
<defs>

	<circle id='gpDot' r='0.5' stroke-width='0.5' stroke='currentColor'/>
	<path id='gpPt0' stroke-width='0.222' stroke='currentColor' d='M-1,0 h2 M0,-1 v2'/>
	<path id='gpPt1' stroke-width='0.222' stroke='currentColor' d='M-1,-1 L1,1 M1,-1 L-1,1'/>
	<path id='gpPt2' stroke-width='0.222' stroke='currentColor' d='M-1,0 L1,0 M0,-1 L0,1 M-1,-1 L1,1 M-1,1 L1,-1'/>
	<rect id='gpPt3' stroke-width='0.222' stroke='currentColor' x='-1' y='-1' width='2' height='2'/>
	<rect id='gpPt4' stroke-width='0.222' stroke='currentColor' fill='currentColor' x='-1' y='-1' width='2' height='2'/>
	<circle id='gpPt5' stroke-width='0.222' stroke='currentColor' cx='0' cy='0' r='1'/>
	<use xlink:href='#gpPt5' id='gpPt6' fill='currentColor' stroke='none'/>
	<path id='gpPt7' stroke-width='0.222' stroke='currentColor' d='M0,-1.33 L-1.33,0.67 L1.33,0.67 z'/>
	<use xlink:href='#gpPt7' id='gpPt8' fill='currentColor' stroke='none'/>
	<use xlink:href='#gpPt7' id='gpPt9' stroke='currentColor' transform='rotate(180)'/>
	<use xlink:href='#gpPt9' id='gpPt10' fill='currentColor' stroke='none'/>
	<use xlink:href='#gpPt3' id='gpPt11' stroke='currentColor' transform='rotate(45)'/>
	<use xlink:href='#gpPt11' id='gpPt12' fill='currentColor' stroke='none'/>
	<path id='gpPt13' stroke-width='0.222' stroke='currentColor' d='M0,1.330 L1.265,0.411 L0.782,-1.067 L-0.782,-1.076 L-1.265,0.411 z'/>
	<use xlink:href='#gpPt13' id='gpPt14' fill='currentColor' stroke='none'/>
	<filter id='textbox' filterUnits='objectBoundingBox' x='0' y='0' height='1' width='1'>
	  <feFlood flood-color='#FFFFFF' flood-opacity='1' result='bgnd'/>
	  <feComposite in='SourceGraphic' in2='bgnd' operator='atop'/>
	</filter>
	<filter id='greybox' filterUnits='objectBoundingBox' x='0' y='0' height='1' width='1'>
	  <feFlood flood-color='lightgrey' flood-opacity='1' result='grey'/>
	  <feComposite in='SourceGraphic' in2='grey' operator='atop'/>
	</filter>
</defs>
<g fill="none" color="#FFFFFF" stroke="black" stroke-width="1.00" stroke-linecap="butt" stroke-linejoin="miter">
</g>
<g fill="none" color="black" stroke="currentColor" stroke-width="1.00" stroke-linecap="butt" stroke-linejoin="miter">
	<path stroke='black'  d='M62.2,356.3 L71.2,356.3 M615.0,356.3 L606.0,356.3  '/>	<g transform="translate(53.9,360.2)" stroke="none" fill="black" font-family="Arial" font-size="12.00"  text-anchor="end">
		<text><tspan font-family="Arial" > 1520</tspan></text>
	</g>
</g>
<g fill="none" color="black" stroke="currentColor" stroke-width="1.00" stroke-linecap="butt" stroke-linejoin="miter">
	<path stroke='black'  d='M62.2,312.5 L71.2,312.5 M615.0,312.5 L606.0,312.5  '/>	<g transform="translate(53.9,316.4)" stroke="none" fill="black" font-family="Arial" font-size="12.00"  text-anchor="end">
		<text><tspan font-family="Arial" > 1540</tspan></text>
	</g>
</g>
<g fill="none" color="black" stroke="currentColor" stroke-width="1.00" stroke-linecap="butt" stroke-linejoin="miter">
	<path stroke='black'  d='M62.2,268.7 L71.2,268.7 M615.0,268.7 L606.0,268.7  '/>	<g transform="translate(53.9,272.6)" stroke="none" fill="black" font-family="Arial" font-size="12.00"  text-anchor="end">
		<text><tspan font-family="Arial" > 1560</tspan></text>
	</g>
</g>
<g fill="none" color="black" stroke="currentColor" stroke-width="1.00" stroke-linecap="butt" stroke-linejoin="miter">
	<path stroke='black'  d='M62.2,224.8 L71.2,224.8 M615.0,224.8 L606.0,224.8  '/>	<g transform="translate(53.9,228.7)" stroke="none" fill="black" font-family="Arial" font-size="12.00"  text-anchor="end">
		<text><tspan font-family="Arial" > 1580</tspan></text>
	</g>
</g>
<g fill="none" color="black" stroke="currentColor" stroke-width="1.00" stroke-linecap="butt" stroke-linejoin="miter">
	<path stroke='black'  d='M62.2,181.0 L71.2,181.0 M615.0,181.0 L606.0,181.0  '/>	<g transform="translate(53.9,184.9)" stroke="none" fill="black" font-family="Arial" font-size="12.00"  text-anchor="end">
		<text><tspan font-family="Arial" > 1600</tspan></text>
	</g>
</g>
<g fill="none" color="black" stroke="currentColor" stroke-width="1.00" stroke-linecap="butt" stroke-linejoin="miter">
	<path stroke='black'  d='M62.2,137.2 L71.2,137.2 M615.0,137.2 L606.0,137.2  '/>	<g transform="translate(53.9,141.1)" stroke="none" fill="black" font-family="Arial" font-size="12.00"  text-anchor="end">
		<text><tspan font-family="Arial" > 1620</tspan></text>
	</g>
</g>
<g fill="none" color="black" stroke="currentColor" stroke-width="1.00" stroke-linecap="butt" stroke-linejoin="miter">
	<path stroke='black'  d='M62.2,93.4 L71.2,93.4 M615.0,93.4 L606.0,93.4  '/>	<g transform="translate(53.9,97.3)" stroke="none" fill="black" font-family="Arial" font-size="12.00"  text-anchor="end">
		<text><tspan font-family="Arial" > 1640</tspan></text>
	</g>
</g>
<g fill="none" color="black" stroke="currentColor" stroke-width="1.00" stroke-linecap="butt" stroke-linejoin="miter">
	<path stroke='black'  d='M62.2,49.6 L71.2,49.6 M615.0,49.6 L606.0,49.6  '/>	<g transform="translate(53.9,53.5)" stroke="none" fill="black" font-family="Arial" font-size="12.00"  text-anchor="end">
		<text><tspan font-family="Arial" > 1660</tspan></text>
	</g>
</g>
<g fill="none" color="black" stroke="currentColor" stroke-width="1.00" stroke-linecap="butt" stroke-linejoin="miter">
	<path stroke='black'  d='M62.2,392.0 L62.2,383.0 M62.2,18.1 L62.2,27.1  '/>	<g transform="translate(62.2,413.9)" stroke="none" fill="black" font-family="Arial" font-size="12.00"  text-anchor="middle">
		<text><tspan font-family="Arial" > 0</tspan></text>
	</g>
</g>
<g fill="none" color="black" stroke="currentColor" stroke-width="1.00" stroke-linecap="butt" stroke-linejoin="miter">
	<path stroke='black'  d='M118.0,392.0 L118.0,383.0 M118.0,18.1 L118.0,27.1  '/>	<g transform="translate(118.0,413.9)" stroke="none" fill="black" font-family="Arial" font-size="12.00"  text-anchor="middle">
		<text><tspan font-family="Arial" > 10</tspan></text>
	</g>
</g>
<g fill="none" color="black" stroke="currentColor" stroke-width="1.00" stroke-linecap="butt" stroke-linejoin="miter">
	<path stroke='black'  d='M173.9,392.0 L173.9,383.0 M173.9,18.1 L173.9,27.1  '/>	<g transform="translate(173.9,413.9)" stroke="none" fill="black" font-family="Arial" font-size="12.00"  text-anchor="middle">
		<text><tspan font-family="Arial" > 20</tspan></text>
	</g>
</g>
<g fill="none" color="black" stroke="currentColor" stroke-width="1.00" stroke-linecap="butt" stroke-linejoin="miter">
	<path stroke='black'  d='M229.7,392.0 L229.7,383.0 M229.7,18.1 L229.7,27.1  '/>	<g transform="translate(229.7,413.9)" stroke="none" fill="black" font-family="Arial" font-size="12.00"  text-anchor="middle">
		<text><tspan font-family="Arial" > 30</tspan></text>
	</g>
</g>
<g fill="none" color="black" stroke="currentColor" stroke-width="1.00" stroke-linecap="butt" stroke-linejoin="miter">
	<path stroke='black'  d='M285.6,392.0 L285.6,383.0 M285.6,18.1 L285.6,27.1  '/>	<g transform="translate(285.6,413.9)" stroke="none" fill="black" font-family="Arial" font-size="12.00"  text-anchor="middle">
		<text><tspan font-family="Arial" > 40</tspan></text>
	</g>
</g>
<g fill="none" color="black" stroke="currentColor" stroke-width="1.00" stroke-linecap="butt" stroke-linejoin="miter">
	<path stroke='black'  d='M341.4,392.0 L341.4,383.0 M341.4,18.1 L341.4,27.1  '/>	<g transform="translate(341.4,413.9)" stroke="none" fill="black" font-family="Arial" font-size="12.00"  text-anchor="middle">
		<text><tspan font-family="Arial" > 50</tspan></text>
	</g>
</g>
<g fill="none" color="black" stroke="currentColor" stroke-width="1.00" stroke-linecap="butt" stroke-linejoin="miter">
	<path stroke='black'  d='M397.2,392.0 L397.2,383.0 M397.2,18.1 L397.2,27.1  '/>	<g transform="translate(397.2,413.9)" stroke="none" fill="black" font-family="Arial" font-size="12.00"  text-anchor="middle">
		<text><tspan font-family="Arial" > 60</tspan></text>
	</g>
</g>
<g fill="none" color="black" stroke="currentColor" stroke-width="1.00" stroke-linecap="butt" stroke-linejoin="miter">
	<path stroke='black'  d='M453.1,392.0 L453.1,383.0 M453.1,18.1 L453.1,27.1  '/>	<g transform="translate(453.1,413.9)" stroke="none" fill="black" font-family="Arial" font-size="12.00"  text-anchor="middle">
		<text><tspan font-family="Arial" > 70</tspan></text>
	</g>
</g>
<g fill="none" color="black" stroke="currentColor" stroke-width="1.00" stroke-linecap="butt" stroke-linejoin="miter">
	<path stroke='black'  d='M508.9,392.0 L508.9,383.0 M508.9,18.1 L508.9,27.1  '/>	<g transform="translate(508.9,413.9)" stroke="none" fill="black" font-family="Arial" font-size="12.00"  text-anchor="middle">
		<text><tspan font-family="Arial" > 80</tspan></text>
	</g>
</g>
<g fill="none" color="black" stroke="currentColor" stroke-width="1.00" stroke-linecap="butt" stroke-linejoin="miter">
	<path stroke='black'  d='M564.7,392.0 L564.7,383.0 M564.7,18.1 L564.7,27.1  '/>	<g transform="translate(564.7,413.9)" stroke="none" fill="black" font-family="Arial" font-size="12.00"  text-anchor="middle">
		<text><tspan font-family="Arial" > 90</tspan></text>
	</g>
</g>
<g fill="none" color="black" stroke="currentColor" stroke-width="1.00" stroke-linecap="butt" stroke-linejoin="miter">
</g>
<g fill="none" color="black" stroke="currentColor" stroke-width="1.00" stroke-linecap="butt" stroke-linejoin="miter">
	<path stroke='black'  d='M62.2,18.1 L62.2,392.0 L615.0,392.0 L615.0,18.1 L62.2,18.1 Z  '/></g>
<g fill="none" color="black" stroke="currentColor" stroke-width="1.00" stroke-linecap="butt" stroke-linejoin="miter">
</g>
	<g id="gnuplot_plot_1" ><title>pages+cached+noexternal+nofonts+nosvg+noimg+nocss</title>
<g fill="none" color="black" stroke="currentColor" stroke-width="1.00" stroke-linecap="butt" stroke-linejoin="miter">
	<g transform="translate(533.3,431.9)" stroke="none" fill="black" font-family="Arial" font-size="12.00"  text-anchor="end">
		<text><tspan font-family="Arial" >pages+cached+noexternal+nofonts+nosvg+noimg+nocss</tspan></text>
	</g>
</g>
<g fill="none" color="black" stroke="currentColor" stroke-width="1.00" stroke-linecap="butt" stroke-linejoin="miter">
	<path stroke='rgb(148,   0, 211)'  d='M541.6,428.0 L583.8,428.0 M62.2,42.9 L67.8,40.3 L73.4,42.9 L79.0,34.7 L84.5,35.8 L90.1,43.6
		L95.7,38.9 L101.3,37.3 L106.9,40.3 L112.5,39.0 L118.0,41.7 L123.6,44.2 L129.2,29.4 L134.8,40.2
		L140.4,39.4 L146.0,42.7 L151.5,40.7 L157.1,25.3 L162.7,41.1 L168.3,36.9 L173.9,46.3 L179.5,41.5
		L185.0,35.6 L190.6,44.8 L196.2,46.1 L201.8,38.5 L207.4,37.8 L213.0,36.4 L218.5,42.3 L224.1,41.0
		L229.7,44.6 L235.3,42.6 L240.9,33.2 L246.5,41.0 L252.1,35.5 L257.6,38.9 L263.2,41.2 L268.8,35.9
		L274.4,42.1 L280.0,37.1 L285.6,41.7 L291.1,40.9 L296.7,46.7 L302.3,40.8 L307.9,39.6 L313.5,39.3
		L319.1,40.6 L324.6,40.4 L330.2,46.7 L335.8,38.0 L341.4,41.6 L347.0,41.0 L352.6,41.4 L358.1,42.5
		L363.7,36.1 L369.3,47.6 L374.9,43.6 L380.5,43.1 L386.1,41.6 L391.6,39.2 L397.2,34.7 L402.8,43.7
		L408.4,45.3 L414.0,44.0 L419.6,38.6 L425.1,42.7 L430.7,35.1 L436.3,44.9 L441.9,38.7 L447.5,42.8
		L453.1,43.8 L458.7,34.0 L464.2,41.9 L469.8,44.9 L475.4,27.7 L481.0,37.5 L486.6,44.1 L492.2,42.0
		L497.7,43.2 L503.3,34.0 L508.9,41.8 L514.5,37.8 L520.1,40.8 L525.7,41.9 L531.2,37.5 L536.8,36.7
		L542.4,42.7 L548.0,41.4 L553.6,36.9 L559.2,40.0 L564.7,41.2 L570.3,38.2 L575.9,42.0 L581.5,45.8
		L587.1,41.3 L592.7,44.0 L598.2,39.8 L603.8,37.4 L609.4,44.9 L615.0,38.7  '/></g>
	</g>
	<g id="gnuplot_plot_2" ><title>pages+cached+noexternal+nofonts+nosvg+noimg+nocss+nojs</title>
<g fill="none" color="black" stroke="currentColor" stroke-width="1.00" stroke-linecap="butt" stroke-linejoin="miter">
	<g transform="translate(533.3,449.9)" stroke="none" fill="black" font-family="Arial" font-size="12.00"  text-anchor="end">
		<text><tspan font-family="Arial" >pages+cached+noexternal+nofonts+nosvg+noimg+nocss+nojs</tspan></text>
	</g>
</g>
<g fill="none" color="black" stroke="currentColor" stroke-width="1.00" stroke-linecap="butt" stroke-linejoin="miter">
	<path stroke='rgb(  0, 158, 115)'  d='M541.6,446.0 L583.8,446.0 M62.2,379.1 L67.8,382.8 L73.4,381.0 L79.0,384.5 L84.5,379.4 L90.1,382.8
		L95.7,380.0 L101.3,383.8 L106.9,379.2 L112.5,379.7 L118.0,379.6 L123.6,377.2 L129.2,384.3 L134.8,380.1
		L140.4,381.4 L146.0,380.2 L151.5,380.1 L157.1,379.0 L162.7,381.4 L168.3,380.5 L173.9,378.6 L179.5,382.8
		L185.0,380.9 L190.6,380.6 L196.2,379.0 L201.8,379.8 L207.4,378.4 L213.0,379.5 L218.5,380.7 L224.1,379.1
		L229.7,379.5 L235.3,382.6 L240.9,379.0 L246.5,380.9 L252.1,381.6 L257.6,378.5 L263.2,382.6 L268.8,379.9
		L274.4,380.4 L280.0,382.9 L285.6,383.3 L291.1,378.8 L296.7,382.3 L302.3,381.6 L307.9,384.8 L313.5,379.6
		L319.1,378.9 L324.6,378.6 L330.2,377.5 L335.8,378.7 L341.4,381.2 L347.0,380.8 L352.6,380.1 L358.1,380.6
		L363.7,380.2 L369.3,381.7 L374.9,379.4 L380.5,378.7 L386.1,378.5 L391.6,378.9 L397.2,380.9 L402.8,379.8
		L408.4,378.6 L414.0,380.6 L419.6,382.7 L425.1,382.1 L430.7,380.4 L436.3,380.8 L441.9,379.3 L447.5,383.9
		L453.1,380.5 L458.7,380.8 L464.2,380.1 L469.8,380.7 L475.4,380.3 L481.0,379.5 L486.6,379.2 L492.2,379.6
		L497.7,381.2 L503.3,379.2 L508.9,381.5 L514.5,377.4 L520.1,384.1 L525.7,377.8 L531.2,382.1 L536.8,379.9
		L542.4,380.9 L548.0,382.6 L553.6,379.2 L559.2,380.3 L564.7,380.5 L570.3,380.6 L575.9,379.2 L581.5,379.5
		L587.1,383.9 L592.7,382.8 L598.2,380.6 L603.8,381.4 L609.4,377.8 L615.0,384.5  '/></g>
	</g>
	<g id="gnuplot_plot_3" ><title>score p10=2336</title>
<g fill="none" color="black" stroke="currentColor" stroke-width="1.00" stroke-linecap="butt" stroke-linejoin="miter">
	<g transform="translate(533.3,467.9)" stroke="none" fill="black" font-family="Arial" font-size="12.00"  text-anchor="end">
		<text><tspan font-family="Arial" >score p10=2336</tspan></text>
	</g>
</g>
<g fill="none" color="black" stroke="currentColor" stroke-width="1.00" stroke-linecap="butt" stroke-linejoin="miter">
	<path stroke='rgb( 86, 180, 233)'  d='M541.6,464.0 L583.8,464.0  '/></g>
	</g>
	<g id="gnuplot_plot_4" ><title>score median=4000</title>
<g fill="none" color="black" stroke="currentColor" stroke-width="1.00" stroke-linecap="butt" stroke-linejoin="miter">
	<g transform="translate(533.3,485.9)" stroke="none" fill="black" font-family="Arial" font-size="12.00"  text-anchor="end">
		<text><tspan font-family="Arial" >score median=4000</tspan></text>
	</g>
</g>
<g fill="none" color="black" stroke="currentColor" stroke-width="1.00" stroke-linecap="butt" stroke-linejoin="miter">
	<path stroke='rgb(230, 159,   0)'  d='M541.6,482.0 L583.8,482.0  '/></g>
	</g>
<g fill="none" color="#FFFFFF" stroke="rgb(230, 159,   0)" stroke-width="2.00" stroke-linecap="butt" stroke-linejoin="miter">
</g>
<g fill="none" color="black" stroke="currentColor" stroke-width="2.00" stroke-linecap="butt" stroke-linejoin="miter">
</g>
<g fill="none" color="black" stroke="black" stroke-width="1.00" stroke-linecap="butt" stroke-linejoin="miter">
</g>
<g fill="none" color="black" stroke="currentColor" stroke-width="1.00" stroke-linecap="butt" stroke-linejoin="miter">
	<path stroke='black'  d='M62.2,18.1 L62.2,392.0 L615.0,392.0 L615.0,18.1 L62.2,18.1 Z  '/></g>
<g fill="none" color="black" stroke="currentColor" stroke-width="1.00" stroke-linecap="butt" stroke-linejoin="miter">
</g>
</g>
</svg>
